X:1
T:Peter Pan, Is That A Kiss?
T:Peter Pan, Is That A Kiss?
T:Peter Pan (2003)
T:James Newton Howard
C:James Newton Howard
%%score { 1 | ( 2 3 ) }
L:1/8
Q:1/4=86
M:3/4
K:C
V:1 treble nm="Piano" snm="Pno."
V:2 bass 
V:3 bass 
V:1
!p! [_AB]2 [_Bd]4- | [Bd]6 | _a2 (3_B2 (g/f/ d2-) | d4- (3:2:2d2 f | [_Ae-]2 [_Be]d/c/ B2- | B6 | %6
 F2 D4 | z6 | [_A,DF]2 [G,B,D]4- | [G,B,D]6 | D2- [DF]2- [D-FB]2 | [Dd]6 | %12
[K:treble+8] ^FG dB- B3/2A/4G/4 | ^FG dB- B3/2A/4G/4 | FE- EE- E3/2A/4G/4 | FE- EE- E3/2A/4G/4 | %16
 ^FG dB- !fermata!B2 |[K:Bb][M:6/8][K:treble][Q:3/8=50] f2 d c2 B | f2 d B3 | c2 G A2 B | d3 c3 | %21
 f2 d c2 B | [Bg]3 [fa]3 | [Bg]3 [Bf]3 | [Ge]2 d [Ac]3 |[M:3/4][Q:1/4=130] .B,.F, .D,.F, ._A,.=E, | %26
 .B,.F, .D,.F, .=E._A | .B.G .D.G .A.F | .G.=E .^C.A, .D.B, | .=E.^C .^G,.C .D.B, | %30
 .=E.^C .^G,.C .D.E | .F.G .A.B .c.G | .A.^F .D z z2 | .G,.B, .A,2 z2 | .G,.B, .A,.G, .A,.B, | %35
 .G,.B, .A,2 z2 | B,A, .B,2 B,A, | B,C [A,D]4- | [A,D]6 |] %39
V:2
 (E,,2 _A,2 D2 | _B,2 F2 _B2) | (E,,2 _A,2 D2 | _B,2 F2 _B2) | (E,,2 _A,2 D2 | _B,2 F2 _B2) | %6
 (_D,,2 G,2 B,2 | D2 _D2 _A,2) | (_D,,2 G,,2 B,,2 | D,2 _D,2 _A,,2) | D,6- | D,6 | %12
[K:treble]!ped! dB- B4!ped-up! |!ped! dB- B4!ped-up! |!ped! DA dA Ec!ped-up! | %15
!ped! DA dA Ec!ped-up! |!ped! dB- !fermata!B4!ped-up! |[K:Bb][M:6/8][K:bass] (B,F-) F4 | %18
 (D,A,F G,B,D | C,G,E-) E3 | !arpeggio![F,B,C]3 !arpeggio![F,A,C]3 | (B,,F,D-) D3 | (G,,D,B, D3) | %23
 E, B,2- B,3 | (C,G,E) F,3 |[M:3/4] .B,,2 z2 ._D,2 | .B,,2 z2 ._A,2 | .G,,2 .B,2 .A,2 | %28
 .=E,2 .A,,2 .B,,2 | .=E,2 z2 .B,,2 | .=E,2 z4 | .[A,D]2 .[CF]2 .[G,E]2 | .[^F,D]2 z .A, .F,.D, | %33
 .[B,,D,]2 .[D,^F,]2 z2 | .[B,,D,]2 .[D,^F,]2 [C,E,]2 | .[B,,D,]2 .[D,^F,]2 z2 | D,C, .D,2 D,C, | %37
 D,E, ^F,4- | F,6 |] %39
V:3
 x6 | x6 | x6 | x6 | x6 | x6 | x6 | x6 | x6 | x6 | B,2 _B,2 _A,2 | x6 |[K:treble] x6 | x6 | x6 | %15
 x6 | x6 |[K:Bb][M:6/8][K:bass] x6 | x6 | x6 | x6 | x6 | x6 | x6 | x6 |[M:3/4] x6 | x6 | x6 | x6 | %29
 x6 | x6 | x6 | x6 | x6 | x6 | x6 | x6 | x6 | x6 |] %39

